images/aGUSD.svg

<svg height="250" viewBox="0 0 250 250" width="250" xmlns="http://www.w3.org/2000/svg" xmlns:xlink="http://www.w3.org/1999/xlink"><linearGradient id="a" gradientUnits="userSpaceOnUse" x1="210.74795868691" x2="51.499024384" y1="33.75081361654" y2="221.50116891581"><stop offset="0" stop-color="#b6509e"/><stop offset="1" stop-color="#2ebac6"/></linearGradient><path d="m124.996094 249.988281c-8.460938 0-16.902344-.851562-25.195313-2.539062-15.988281-3.277344-31.175781-9.667969-44.695312-18.8125-20.097657-13.5625-35.828125-32.667969-45.289063-54.992188-3.195312-7.558593-5.632812-15.417969-7.28125-23.460937-3.382812-16.621094-3.382812-33.757813 0-50.382813 3.277344-15.988281 9.667969-31.175781 18.808594-44.695312 13.566406-20.097657 32.671875-35.832031 54.996094-45.292969 7.5625-3.195312 15.421875-5.636719 23.460937-7.28125 16.625-3.386719 33.757813-3.386719 50.382813 0 15.988281 3.273438 31.179687 9.664062 44.699218 18.804688 20.09375 13.566406 35.828126 32.671874 45.285157 55 3.199219 7.558593 5.640625 15.417968 7.289062 23.457031 3.386719 16.625 3.386719 33.761719 0 50.382812-3.277343 15.992188-9.667969 31.179688-18.808593 44.699219-13.566407 20.097656-32.671876 35.828125-54.996094 45.289062-7.5625 3.195313-15.421875 5.636719-23.460938 7.285157-8.292968 1.691406-16.734375 2.542969-25.195312 2.539062zm0-236.609375c-7.554688 0-15.089844.757813-22.492188 2.269532-14.277344 2.921874-27.839844 8.628906-39.910156 16.792968-17.941406 12.113282-31.984375 29.171875-40.429688 49.105469-2.855468 6.75-5.03125 13.765625-6.503906 20.949219-3.023437 14.839844-3.023437 30.140625 0 44.984375 2.925782 14.273437 8.632813 27.835937 16.796875 39.90625 12.113281 17.941406 29.167969 31.988281 49.101563 40.4375 6.753906 2.851562 13.769531 5.03125 20.949218 6.5 14.84375 3.023437 30.144532 3.023437 44.988282 0 14.273437-2.921875 27.835937-8.628907 39.90625-16.796875 17.9375-12.113282 31.976562-29.167969 40.421875-49.097656 2.851562-6.753907 5.03125-13.769532 6.503906-20.949219 3.019531-14.84375 3.019531-30.144531 0-44.988281-2.925781-14.273438-8.632813-27.835938-16.796875-39.90625-12.113281-17.941407-29.167969-31.984376-49.097656-40.429688-6.75-2.851562-13.769532-5.03125-20.949219-6.503906-7.402344-1.507813-14.9375-2.269532-22.492187-2.269532zm0 0" fill="url(#a)"/><path d="m151.253906 39.570312c-30.167968.171876-55.445312 22.871094-58.839844 52.847657-31.148437 3.503906-54.164062 30.691406-52.480468 61.992187 1.6875 31.300782 27.484375 55.859375 58.828125 56 30.164062-.175781 55.429687-22.875 58.828125-52.84375 31.144531-3.507812 54.160156-30.6875 52.476562-61.984375-1.679687-31.300781-27.46875-55.859375-58.8125-56.011719zm45.316406 65.859376c-3.023437 19.949218-18.675781 35.613281-38.625 38.652343v-38.652343zm-143.136718 39.121093c3.023437-19.949219 18.675781-35.613281 38.621094-38.648437v38.621094zm90.660156 13.382813c-3.25 22.527344-22.554688 39.25-45.316406 39.25-22.761719 0-42.066406-16.722656-45.316406-39.25zm.5-52.503906v39.121093h-39.152344v-39.121093zm51.976562-13.382813h-90.660156c3.296875-22.492187 22.585938-39.160156 45.316406-39.160156 22.730469 0 42.019532 16.667969 45.316407 39.160156zm0 0" fill="#26ddf9"/></svg>

<svg xmlns="http://www.w3.org/2000/svg" xmlns:xlink="http://www.w3.org/1999/xlink" width="250px" height="250px" viewBox="0 0 250 250" version="1.1">
<defs>
<linearGradient id="linear0" gradientUnits="userSpaceOnUse" x1="215.809998" y1="34.560001" x2="52.736" y2="226.820007" gradientTransform="matrix(0.976544,0,0,0.976544,-0.000000000000027755,0.00145174)">
<stop offset="0" style="stop-color:rgb(71.372551%,31.37255%,61.960787%);stop-opacity:1;"/>
<stop offset="1" style="stop-color:rgb(18.039216%,72.941178%,77.64706%);stop-opacity:1;"/>
</linearGradient>
</defs>
<g id="surface1">
<path style=" stroke:none;fill-rule:nonzero;fill:url(#linear0);" d="M 124.996094 249.988281 C 116.535156 249.988281 108.09375 249.136719 99.800781 247.449219 C 83.8125 244.171875 68.625 237.78125 55.105469 228.636719 C 35.007812 215.074219 19.277344 195.96875 9.816406 173.644531 C 6.621094 166.085938 4.183594 158.226562 2.535156 150.183594 C -0.847656 133.5625 -0.847656 116.425781 2.535156 99.800781 C 5.8125 83.8125 12.203125 68.625 21.34375 55.105469 C 34.910156 35.007812 54.015625 19.273438 76.339844 9.8125 C 83.902344 6.617188 91.761719 4.175781 99.800781 2.53125 C 116.425781 -0.855469 133.558594 -0.855469 150.183594 2.53125 C 166.171875 5.804688 181.363281 12.195312 194.882812 21.335938 C 214.976562 34.902344 230.710938 54.007812 240.167969 76.335938 C 243.367188 83.894531 245.808594 91.753906 247.457031 99.792969 C 250.84375 116.417969 250.84375 133.554688 247.457031 150.175781 C 244.179688 166.167969 237.789062 181.355469 228.648438 194.875 C 215.082031 214.972656 195.976562 230.703125 173.652344 240.164062 C 166.089844 243.359375 158.230469 245.800781 150.191406 247.449219 C 141.898438 249.140625 133.457031 249.992188 124.996094 249.988281 Z M 124.996094 13.378906 C 117.441406 13.378906 109.90625 14.136719 102.503906 15.648438 C 88.226562 18.570312 74.664062 24.277344 62.59375 32.441406 C 44.652344 44.554688 30.609375 61.613281 22.164062 81.546875 C 19.308594 88.296875 17.132812 95.3125 15.660156 102.496094 C 12.636719 117.335938 12.636719 132.636719 15.660156 147.480469 C 18.585938 161.753906 24.292969 175.316406 32.457031 187.386719 C 44.570312 205.328125 61.625 219.375 81.558594 227.824219 C 88.3125 230.675781 95.328125 232.855469 102.507812 234.324219 C 117.351562 237.347656 132.652344 237.347656 147.496094 234.324219 C 161.769531 231.402344 175.332031 225.695312 187.402344 217.527344 C 205.339844 205.414062 219.378906 188.359375 227.824219 168.429688 C 230.675781 161.675781 232.855469 154.660156 234.328125 147.480469 C 237.347656 132.636719 237.347656 117.335938 234.328125 102.492188 C 231.402344 88.21875 225.695312 74.65625 217.53125 62.585938 C 205.417969 44.644531 188.363281 30.601562 168.433594 22.15625 C 161.683594 19.304688 154.664062 17.125 147.484375 15.652344 C 140.082031 14.144531 132.546875 13.382812 124.992188 13.382812 Z M 124.996094 13.378906 "/>
<path style=" stroke:none;fill-rule:nonzero;fill:rgb(14.901961%,86.666667%,97.647059%);fill-opacity:1;" d="M 151.253906 39.570312 C 121.085938 39.742188 95.808594 62.441406 92.414062 92.417969 C 61.265625 95.921875 38.25 123.109375 39.933594 154.410156 C 41.621094 185.710938 67.417969 210.269531 98.761719 210.410156 C 128.925781 210.234375 154.191406 187.535156 157.589844 157.566406 C 188.734375 154.058594 211.75 126.878906 210.066406 95.582031 C 208.386719 64.28125 182.597656 39.722656 151.253906 39.570312 Z M 196.570312 105.429688 C 193.546875 125.378906 177.894531 141.042969 157.945312 144.082031 L 157.945312 105.429688 Z M 53.433594 144.550781 C 56.457031 124.601562 72.109375 108.9375 92.054688 105.902344 L 92.054688 144.523438 Z M 144.09375 157.933594 C 140.84375 180.460938 121.539062 197.183594 98.777344 197.183594 C 76.015625 197.183594 56.710938 180.460938 53.460938 157.933594 Z M 144.59375 105.429688 L 144.59375 144.550781 L 105.441406 144.550781 L 105.441406 105.429688 Z M 196.570312 92.046875 L 105.910156 92.046875 C 109.207031 69.554688 128.496094 52.886719 151.226562 52.886719 C 173.957031 52.886719 193.246094 69.554688 196.542969 92.046875 Z M 196.570312 92.046875 "/>
</g>
</svg>
